svg/u1f4be.svg

<svg viewBox="0 0 128 128" xmlns="http://www.w3.org/2000/svg">
  <path d="M124.17,27.95v87.49c0,4.82-3.91,8.73-8.73,8.73H12.56c-4.82,0-8.73-3.91-8.73-8.73V12.56 c0-4.82,3.91-8.73,8.73-8.73h89.64c3.56,0,6.94,1.59,9.21,4.34l10.04,12.19C123.21,22.5,124.17,25.18,124.17,27.95z" fill="#616161"/>
  <path d="M103.94,124.17H24V71.25c0-1.81,1.47-3.28,3.28-3.28h73.39c1.81,0,3.28,1.47,3.28,3.28V124.17z" fill="#FFFFFF"/>
  <rect height="12.25" fill="#039BE5" width="79.94" x="24" y="111.92"/>
  <path d="M16.75,3.83v47.75c0,1.78,1.57,3.17,3.65,3.17h76.65c2.08,0,3.69-1.38,3.69-3.17V3.83H16.75z" fill="#424242"/>
  <path d="M35,3.83v45.02c0,1.68,1.18,2.98,2.74,2.98H95.2c1.56,0,2.77-1.3,2.77-2.98V3.83H35z M85.97,46.52 c0,0.72-0.59,1.31-1.31,1.31H67.28c-0.72,0-1.31-0.59-1.31-1.31V9.14c0-0.72,0.59-1.31,1.31-1.31h17.38c0.72,0,1.31,0.59,1.31,1.31 V46.52z" fill="#E0E0E0"/>
</svg>

<svg viewBox="0 0 128 128" xmlns="http://www.w3.org/2000/svg">
  <defs/>
  <path d="M124.17,27.95 L124.17,115.44 C124.17,120.26 120.26,124.17 115.44,124.17 L12.56,124.17 C7.74,124.17 3.83,120.26 3.83,115.44 L3.83,12.56 C3.83,7.74 7.74,3.83 12.56,3.83 L102.2,3.83 C105.76,3.83 109.14,5.42 111.41,8.17 L121.45,20.36 C123.21,22.5 124.17,25.18 124.17,27.95 Z" fill="#616161"/>
  <path d="M103.94,124.17 L24,124.17 L24,71.25 C24,69.44 25.47,67.97 27.28,67.97 L100.67,67.97 C102.48,67.97 103.95,69.44 103.95,71.25 L103.95,124.17 Z" fill="#FFFFFF"/>
  <path d="M24,111.92 L103.94,111.92 L103.94,124.17 L24,124.17 L24,111.92 Z" fill="#039BE5"/>
  <path d="M16.75,3.83 L16.75,51.58 C16.75,53.36 18.32,54.75 20.4,54.75 L97.05,54.75 C99.13,54.75 100.74,53.37 100.74,51.58 L100.74,3.83 L16.75,3.83 Z" fill="#424242"/>
  <path d="M35,3.83 L35,48.85 C35,50.53 36.18,51.83 37.74,51.83 L95.2,51.83 C96.76,51.83 97.97,50.53 97.97,48.85 L97.97,3.83 L35,3.83 Z M85.97,46.52 C85.97,47.24 85.38,47.83 84.66,47.83 L67.28,47.83 C66.56,47.83 65.97,47.24 65.97,46.52 L65.97,9.14 C65.97,8.42 66.56,7.83 67.28,7.83 L84.66,7.83 C85.38,7.83 85.97,8.42 85.97,9.14 L85.97,46.52 Z" fill="#E0E0E0"/>
</svg>
